icons/lua.svg

<?xml version="1.0" encoding="UTF-8" standalone="no"?>
<svg
   xmlns:dc="http://purl.org/dc/elements/1.1/"
   xmlns:cc="http://creativecommons.org/ns#"
   xmlns:rdf="http://www.w3.org/1999/02/22-rdf-syntax-ns#"
   xmlns:svg="http://www.w3.org/2000/svg"
   xmlns="http://www.w3.org/2000/svg"
   xmlns:sodipodi="http://sodipodi.sourceforge.net/DTD/sodipodi-0.dtd"
   xmlns:inkscape="http://www.inkscape.org/namespaces/inkscape"
   version="1.1"
   width="24"
   height="24"
   viewBox="0 0 24 24"
   id="svg2"
   inkscape:version="0.91 r13725"
   sodipodi:docname="lua.svg">
  <metadata
     id="metadata10">
    <rdf:RDF>
      <cc:Work
         rdf:about="">
        <dc:format>image/svg+xml</dc:format>
        <dc:type
           rdf:resource="http://purl.org/dc/dcmitype/StillImage" />
        <dc:title />
      </cc:Work>
    </rdf:RDF>
  </metadata>
  <defs
     id="defs8" />
  <sodipodi:namedview
     pagecolor="#ffffff"
     bordercolor="#666666"
     borderopacity="1"
     objecttolerance="10"
     gridtolerance="10"
     guidetolerance="10"
     inkscape:pageopacity="0"
     inkscape:pageshadow="2"
     inkscape:window-width="1366"
     inkscape:window-height="705"
     id="namedview6"
     showgrid="false"
     showguides="true"
     inkscape:guide-bbox="true"
     inkscape:zoom="19.666667"
     inkscape:cx="5.4435673"
     inkscape:cy="13.562207"
     inkscape:window-x="-8"
     inkscape:window-y="-8"
     inkscape:window-maximized="1"
     inkscape:current-layer="svg2" />
  <circle
     style="fill:none;fill-opacity:1;stroke:#42a5f5;stroke-opacity:1"
     id="path4142"
     cx="12.203389"
     cy="12.101695"
     r="10.322034" />
  <path
     style="fill:#42a5f5;fill-opacity:1;fill-rule:evenodd;stroke:none;stroke-width:1px;stroke-linecap:butt;stroke-linejoin:miter;stroke-opacity:1"
     d="M 12.330078 5.7460938 A 6.4830503 6.3813553 0 0 0 5.8476562 12.126953 A 6.4830503 6.3813553 0 0 0 12.330078 18.507812 A 6.4830503 6.3813553 0 0 0 18.814453 12.126953 A 6.4830503 6.3813553 0 0 0 12.330078 5.7460938 z M 14.189453 7.6621094 A 2.3290315 2.2924976 0 0 1 16.519531 9.9550781 A 2.3290315 2.2924976 0 0 1 14.189453 12.246094 A 2.3290315 2.2924976 0 0 1 11.861328 9.9550781 A 2.3290315 2.2924976 0 0 1 14.189453 7.6621094 z "
     id="ellipse4144" />
  <ellipse
     cy="4.6153951"
     cx="19.630934"
     id="ellipse4151"
     style="fill:#42a5f5;fill-opacity:1;fill-rule:evenodd;stroke:none;stroke-width:1px;stroke-linecap:butt;stroke-linejoin:miter;stroke-opacity:1"
     rx="2.3290315"
     ry="2.2924976" />
</svg>

<svg version="1.1" viewBox="0 0 24 24" xmlns="http://www.w3.org/2000/svg">
<g transform="translate(-.20339 -.1017)">
<circle cx="12.203" cy="12.102" r="10.322" fill="none" stroke="#42a5f5"/>
<path d="m12.33 5.7461a6.4831 6.3814 0 0 0 -6.4824 6.3809 6.4831 6.3814 0 0 0 6.4824 6.3809 6.4831 6.3814 0 0 0 6.4844 -6.3809 6.4831 6.3814 0 0 0 -6.4844 -6.3809zm1.8594 1.916a2.329 2.2925 0 0 1 2.3301 2.293 2.329 2.2925 0 0 1 -2.3301 2.291 2.329 2.2925 0 0 1 -2.3281 -2.291 2.329 2.2925 0 0 1 2.3281 -2.293z" fill="#42a5f5" fill-rule="evenodd"/>
<ellipse cx="19.631" cy="4.6154" rx="2.329" ry="2.2925" fill="#42a5f5" fill-rule="evenodd"/>
</g>
</svg>
